!!!ONR: No. 1
!! From Harold Courlander, "Haiti Singing"
!! Chapel Hill: University of North Carolina Press, 1939
!! Copyright University of North Carolina Press
!!!ENC: D. Huron
**kern
*clefG2
*k[b-e-]
*M2/4
=1-
4r
8g
8g
=2
4g
8b-
[8b-
=3
8b-]
8cc
8ee-
8dd
=4
8dd
8cc
[4cc
=5
4cc]
8b-
8cc
=6
4b-
8g
8g
=7
4g
8b-
[8b-
=8
8b-]
8cc
8ee-
8dd
=9
8dd
8cc
[4cc
=10
8cc]
8ee-
8gg
8ee-
=11
(8cc
8b-
8gg)
8g
=12
8cc-
8b-
[4f
=13
8f]
8c
8e
8g
=14
2b-
=15
8cc
8b-
8cc
8b-
=16
[2b-
=17
2b-]
==
*-
